chrome/icons/contact.svg

<svg height="16" viewBox="64 0 896 1024" width="16" xmlns="http://www.w3.org/2000/svg" xmlns:xlink="http://www.w3.org/1999/xlink">
  <path d="M256,251C256,216.333 262.917,183.75 276.75,153.25C290.583,122.75 309.25,96.1667 332.75,73.5C356.25,50.8334 383.417,32.9167 414.25,19.75C445.083,6.58337 477.667,0 512,0C547.333,0 580.583,6.66669 611.75,20C642.917,33.3334 670.083,51.5834 693.25,74.75C716.417,97.9167 734.667,125.083 748,156.25C761.333,187.417 768,220.667 768,256C768,291.333 761.333,324.583 748,355.75C734.667,386.917 716.417,414.083 693.25,437.25C670.083,460.417 642.917,478.667 611.75,492C580.583,505.333 547.333,512 512,512C475.667,512 441.917,505.167 410.75,491.5C379.583,477.833 352.5,459.167 329.5,435.5C306.5,411.833 288.5,384.167 275.5,352.5C262.5,320.833 256,287 256,251ZM704,252C704,226 698.833,201.583 688.5,178.75C678.167,155.917 664.25,136 646.75,119C629.25,102 608.833,88.5834 585.5,78.75C562.167,68.9167 537.667,64.0001 512,64C485.333,64.0001 460.333,69.0001 437,79C413.667,89.0001 393.333,102.667 376,120C358.667,137.333 345,157.667 335,181C325,204.333 320,229.333 320,256C320,282.667 325,307.667 335,331C345,354.333 358.667,374.667 376,392C393.333,409.333 413.667,423 437,433C460.333,443 485.333,448 512,448C539.333,448 564.75,442.917 588.25,432.75C611.75,422.583 632.083,408.583 649.25,390.75C666.417,372.917 679.833,352.083 689.5,328.25C699.167,304.417 704,279 704,252ZM64,704C64,687 67.3333,670.75 74,655.25C80.6667,639.75 89.6667,626.167 101,614.5C112.333,602.833 125.583,593.5 140.75,586.5C155.917,579.5 172.167,576 189.5,576L832,576C849,576 865.25,579.333 880.75,586C896.25,592.667 909.833,601.667 921.5,613C933.167,624.333 942.5,637.583 949.5,652.75C956.5,667.917 960,684.167 960,701.5C960,742.5 953.667,779 941,811C928.333,843 911.167,870.917 889.5,894.75C867.833,918.583 842.417,938.75 813.25,955.25C784.083,971.75 752.917,985.083 719.75,995.25C686.583,1005.42 652.25,1012.75 616.75,1017.25C581.25,1021.75 546.333,1024 512,1024C479,1024 446.167,1022.25 413.5,1018.75C380.833,1015.25 348.667,1009 317,1000C281,989.667 247.583,975.833 216.75,958.5C185.917,941.167 159.167,920.25 136.5,895.75C113.833,871.25 96.0833,843.083 83.25,811.25C70.4167,779.417 64,743.667 64,704ZM896,704C896,695.333 894.333,687.083 891,679.25C887.667,671.417 883.083,664.583 877.25,658.75C871.417,652.917 864.583,648.333 856.75,645C848.917,641.667 840.667,640 832,640L192,640C183,640 174.667,641.667 167,645C159.333,648.333 152.583,652.917 146.75,658.75C140.917,664.583 136.333,671.333 133,679C129.667,686.667 128,695 128,704C128,738.333 133.667,768.417 145,794.25C156.333,820.083 171.667,842.5 191,861.5C210.333,880.5 232.75,896.333 258.25,909C283.75,921.667 310.75,931.75 339.25,939.25C367.75,946.75 396.833,952.083 426.5,955.25C456.167,958.417 484.667,960 512,960C539.333,960 567.833,958.417 597.5,955.25C627.167,952.083 656.25,946.75 684.75,939.25C713.25,931.75 740.25,921.667 765.75,909C791.25,896.333 813.667,880.5 833,861.5C852.333,842.5 867.667,820 879,794C890.333,768 896,738 896,704Z" fill="context-fill" fill-opacity="context-fill-opacity">
  </path>
</svg>

<svg xmlns="http://www.w3.org/2000/svg" width="16" height="16" viewBox="64 0 896 1024"><path fill="context-fill" fill-opacity="context-fill-opacity" d="M256 251q0-52 20.75-97.75t56-79.75 81.5-53.75T512 0q53 0 99.75 20t81.5 54.75 54.75 81.5T768 256t-20 99.75-54.75 81.5-81.5 54.75T512 512q-54.5 0-101.25-20.5t-81.25-56-54-83T256 251m448 1q0-39-15.5-73.25T646.75 119 585.5 78.75 512 64q-40 0-75 15t-61 41-41 61-15 75 15 75 41 61 61 41 75 15q41 0 76.25-15.25t61-42 40.25-62.5T704 252M64 704q0-25.5 10-48.75t27-40.75 39.75-28T189.5 576H832q25.5 0 48.75 10t40.75 27 28 39.75T960 701.5q0 61.5-19 109.5t-51.5 83.75-76.25 60.5-93.5 40c-33.167 10.17-67.5 17.5-103 22Q563.5 1024 512 1024q-49.5 0-98.5-5.25A577.3 577.3 0 0 1 317 1000q-54-15.5-100.25-41.5t-80.25-62.75-53.25-84.5T64 704m832 0q0-13-5-24.75t-13.75-20.5-20.5-13.75-24.75-5H192q-13.5 0-25 5t-20.25 13.75T133 679t-5 25q0 51.5 17 90.25t46 67.25 67.25 47.5 81 30.25 87.25 16T512 960t85.5-4.75 87.25-16 81-30.25T833 861.5t46-67.5 17-90"/></svg>
